images/about/about-sony.svg

<svg height="150" viewBox="0 0 250 150" width="250" xmlns="http://www.w3.org/2000/svg"><path d="m89.064257 44.0145582c-9.0562249 0-17.4628514-2.7158634-23.0742972-7.75251-4.2394578-3.8052209-6.2766064-8.9738956-6.2766064-14.2936747 0-5.2550201 2.125-10.4593374 6.2761044-14.24447792 5.2113454-4.74949799 14.4121486-7.72389558 23.0747992-7.72389558 9.5863454 0 17.259036 2.41465863 23.124498 7.73694779 4.173193 3.78714861 6.190763 8.96837351 6.190763 14.23192771 0 5.1019076-2.141064 10.5351406-6.190763 14.2931727-5.461847 5.0692771-14.0451807 7.75251-23.124498 7.75251v-5.8052209c4.8067269 0 9.2655623-1.6596385 12.379518-4.7580321 3.09237-3.0773092 4.533133-6.8599397 4.533133-11.4829317 0-4.4287149-1.554217-8.5692771-4.533133-11.5060241-3.0722891-3.02610442-7.6375501-4.72891567-12.379518-4.72891567-4.7565261 0-9.3247992 1.68524097-12.3995984 4.72891567-2.9628514 2.935743-4.5210843 7.0883534-4.5210843 11.5060241 0 4.4041165 1.5763052 8.5542169 4.5210843 11.4834337 3.0773093 3.061245 7.6295181 4.7580322 12.3995984 4.7580322v5.8052208zm-66.191767-43.99347386c-4.8443776 0-10.3478916.9061245-15.02409643 2.99447791-4.31576305 1.92570281-7.84839459 5.04016064-7.84839459 10.20331325-.00200701 4.6501004 2.95331427 7.373494 2.87299299 7.2981928 1.25702811 1.1571285 3.28062249 3.12751 8.57128513 4.2846385 2.3644578.5170683 7.4196787 1.311245 12.4538153 1.8373494 4.9969879.5271085 9.9146586 1.0281125 11.9176707 1.5351406 1.5913654.4051205 4.2645582.9568273 4.2645582 3.9558233 0 2.9869478-2.8162651 3.8985944-3.3057229 4.0963855-.4889558.1932731-3.8674699 1.7434739-9.9407631 1.7434739-4.4839357 0-9.874498-1.3483936-11.8393574-2.0512048-2.2650602-.8062249-4.6410642-1.87249-6.85742971-4.5798193-.55120482-.6711847-1.42068273-2.5170683-1.42068273-4.3448795h-5.49648594v15.4016064h6.10943775v-2.0808233c0-.2369478.29618474-1.2113453 1.32178715-.7479919 1.27610442.5798192 5.02208838 2.0712851 8.93875498 2.8890562 3.2113454.6716867 5.2821286 1.1531124 9.2745984 1.1531124 6.5140563 0 10.0135542-1.0612449 12.432731-1.752008 2.2791164-.6526104 5.0953815-1.8242972 7.3830321-3.6485944 1.2389558-.9864457 3.9558233-3.5150602 3.9558233-8.1049196 0-4.4056225-2.3644579-7.1400603-3.1962852-7.9718876-1.1330321-1.1335341-2.5170682-2.0120482-3.9593373-2.689257-1.2565261-.5913655-3.2394578-1.3017069-4.8619478-1.6987952-3.1490964-.7730924-10.2695783-1.7269076-13.6746988-2.0833333-3.5707831-.372992-9.7650602-.8860442-12.2389558-1.6516065-.75-.2324297-2.2791165-.9608433-2.2791165-2.7359437 0-1.2625502.6992972-2.33283136 2.0813253-3.1977912 2.1937751-1.374498 6.625-2.22891567 11.2439759-2.22891567 5.4608434-.02008032 10.0853414 1.22841366 13.0271084 2.5436747 1.0005021.44678715 2.1711848 1.08835342 3.1009037 1.84738957 1.0491968.8554217 2.5220883 2.6330321 3.0547188 5.1124498h4.934739v-13.40662652h-5.5100402v1.55823294c0 .50301204-.5195783 1.1566265-1.502008.61646586-2.4658635-1.2936747-9.437751-4.08483936-17.9849398-4.09638554m120.7510041 2.43624498 26.878514 24.25702808-.276104-16.3318273c-.027109-2.14156624-.421687-3.03564255-2.737952-3.03564255h-5.053715v-4.88554217h22.981928v4.88554217h-4.929719c-2.36245 0-2.511546.75552209-2.540161 3.03564255l.416667 31.2063253h-7.870482l-30.958835-27.6305221.006526 19.6094378c.027108 2.1315261.127008 3.1355422 2.323293 3.1355422h5.519578v4.8835341h-22.570281v-4.8830321h5.276104c1.970884 0 1.892571-1.8790161 1.892571-3.246988v-22.8885542c0-1.47740965-.20733-3.21787149-3.301707-3.21787149h-4.281125v-4.89307229zm68.054217 34.23694778c.215863 0 1.174699-.0276104 1.360442-.0843373.530622-.1656627.890562-.5441767 1.057229-.9387551.070281-.1656626.105421-.8985943.105421-1.0577309l.004016-7.7208835c0-.185743-.013554-.2660643-.328815-.6797189-.346386-.4518072-14.078815-16.0140562-14.707329-16.69929718-.780623-.85090362-2.151105-2.16616466-4.233434-2.16616466h-4.775602v-4.8875502h26.951305v4.8815261h-3.248996c-.751506 0-1.251004.71285141-.608936 1.50502008 0 0 9.067771 10.84688756 9.153614 10.96034136.084338.1154619.156627.1430723.272089.0376506.113454-.1079317 9.295181-10.89859437 9.36747-10.98393573.436747-.52309237.140562-1.51355422-.800703-1.51355422h-3.332831v-4.88704819h22.088353v4.88704819h-4.934739c-1.790161 0-2.518574.3313253-3.865462 1.85391566-.615964.69678715-14.49498 16.53865459-14.87249 16.96787149-.197791.2243976-.180723.5371486-.180723.7228916v7.7198795c0 .1566265.035141.8905622.105422 1.0552209.167169.3965863.529116.7751004 1.059237.938755.185743.0572289 1.131526.0853414 1.346888.0853414h5.04769v4.8865461h-26.812249v-4.8870482l4.784137.0040161z" transform="translate(0 53)"/></svg>

<?xml version="1.0" encoding="UTF-8"?>
<svg width="250px" height="150px" viewBox="0 0 250 150" version="1.1" xmlns="http://www.w3.org/2000/svg" xmlns:xlink="http://www.w3.org/1999/xlink">
    <title>about-sony</title>
    <g id="about-sony" stroke="none" stroke-width="1" fill="none" fill-rule="evenodd">
        <g id="Sony_logo" transform="translate(0.000000, 53.000000)" fill="#000000" fill-rule="nonzero">
            <path d="M89.064257,44.0145582 C80.0080321,44.0145582 71.6014056,41.2986948 65.9899598,36.2620482 C61.750502,32.4568273 59.7133534,27.2881526 59.7133534,21.9683735 C59.7133534,16.7133534 61.8383534,11.5090361 65.9894578,7.72389558 C71.2008032,2.97439759 80.4016064,0 89.064257,0 C98.6506024,0 106.323293,2.41465863 112.188755,7.73694779 C116.361948,11.5240964 118.379518,16.7053213 118.379518,21.9688755 C118.379518,27.0707831 116.238454,32.5040161 112.188755,36.2620482 C106.726908,41.3313253 98.1435743,44.0145582 89.064257,44.0145582 L89.064257,38.2093373 C93.8709839,38.2093373 98.3298193,36.5496988 101.443775,33.4513052 C104.536145,30.373996 105.976908,26.5913655 105.976908,21.9683735 C105.976908,17.5396586 104.422691,13.3990964 101.443775,10.4623494 C98.3714859,7.43624498 93.8062249,5.73343373 89.064257,5.73343373 C84.3077309,5.73343373 79.7394578,7.4186747 76.6646586,10.4623494 C73.7018072,13.3980924 72.1435743,17.5507028 72.1435743,21.9683735 C72.1435743,26.37249 73.7198795,30.5225904 76.6646586,33.4518072 C79.7419679,36.5130522 84.2941767,38.2098394 89.064257,38.2098394 L89.064257,44.0150602 L89.064257,44.0145582 Z M22.87249,0.0210843373 C18.0281124,0.0210843373 12.5245984,0.927208835 7.84839357,3.01556225 C3.53263052,4.94126506 -1.0228278e-06,8.05572289 -1.0228278e-06,13.2188755 C-0.00200803213,17.8689759 2.95331325,20.5923695 2.87299197,20.5170683 C4.13002008,21.6741968 6.15361446,23.6445783 11.4442771,24.8017068 C13.8087349,25.3187751 18.8639558,26.1129518 23.8980924,26.6390562 C28.8950803,27.1661647 33.812751,27.6671687 35.8157631,28.1741968 C37.4071285,28.5793173 40.0803213,29.1310241 40.0803213,32.1300201 C40.0803213,35.1169679 37.2640562,36.0286145 36.7745984,36.2264056 C36.2856426,36.4196787 32.9071285,37.9698795 26.8338353,37.9698795 C22.3498996,37.9698795 16.9593373,36.6214859 14.9944779,35.9186747 C12.7294177,35.1124498 10.3534137,34.0461847 8.13704819,31.3388554 C7.58584337,30.6676707 6.71636546,28.8217871 6.71636546,26.9939759 L1.21987952,26.9939759 L1.21987952,42.3955823 L7.32931727,42.3955823 L7.32931727,40.314759 C7.32931727,40.0778112 7.62550201,39.1034137 8.65110442,39.5667671 C9.92720884,40.1465863 13.6731928,41.6380522 17.5898594,42.4558233 C20.8012048,43.12751 22.871988,43.6089357 26.8644578,43.6089357 C33.3785141,43.6089357 36.878012,42.5476908 39.2971888,41.8569277 C41.5763052,41.2043173 44.3925703,40.0326305 46.6802209,38.2083333 C47.9191767,37.2218876 50.6360442,34.6932731 50.6360442,30.1034137 C50.6360442,25.6977912 48.2715863,22.9633534 47.439759,22.1315261 C46.3067269,20.997992 44.9226908,20.1194779 43.4804217,19.4422691 C42.2238956,18.8509036 40.2409639,18.1405622 38.6184739,17.7434739 C35.4693775,16.9703815 28.3488956,16.0165663 24.9437751,15.6601406 C21.372992,15.2871486 15.1787149,14.7740964 12.7048193,14.0085341 C11.9548193,13.7761044 10.4257028,13.0476908 10.4257028,11.2725904 C10.4257028,10.0100402 11.125,8.93975904 12.5070281,8.0747992 C14.7008032,6.7003012 19.1320281,5.84588353 23.751004,5.84588353 C29.2118474,5.82580321 33.8363454,7.07429719 36.7781124,8.38955823 C37.7786145,8.83634538 38.9492972,9.47791165 39.8790161,10.2369478 C40.9282129,11.0923695 42.4011044,12.8699799 42.9337349,15.3493976 L47.8684739,15.3493976 L47.8684739,1.94277108 L42.3584337,1.94277108 L42.3584337,3.50100402 C42.3584337,4.00401606 41.8388554,4.65763052 40.8564257,4.11746988 C38.3905622,2.82379518 31.4186747,0.0326305221 22.8714859,0.0210843373 M143.62249,2.45732932 L170.501004,26.7143574 L170.2249,10.3825301 C170.197791,8.24096386 169.803213,7.34688755 167.486948,7.34688755 L162.433233,7.34688755 L162.433233,2.46134538 L185.415161,2.46134538 L185.415161,7.34688755 L180.485442,7.34688755 C178.122992,7.34688755 177.973896,8.10240964 177.945281,10.3825301 L178.361948,41.5888554 L170.491466,41.5888554 L139.532631,13.9583333 L139.539157,33.5677711 C139.566265,35.6992972 139.666165,36.7033133 141.86245,36.7033133 L147.382028,36.7033133 L147.382028,41.5868474 L124.811747,41.5868474 L124.811747,36.7038153 L130.087851,36.7038153 C132.058735,36.7038153 131.980422,34.8247992 131.980422,33.4568273 L131.980422,10.5682731 C131.980422,9.09086345 131.773092,7.35040161 128.678715,7.35040161 L124.39759,7.35040161 L124.39759,2.45732932 L143.62249,2.45732932 Z M211.676707,36.6942771 C211.89257,36.6942771 212.851406,36.6666667 213.037149,36.6099398 C213.567771,36.4442771 213.927711,36.0657631 214.094378,35.6711847 C214.164659,35.5055221 214.199799,34.7725904 214.199799,34.6134538 L214.203815,26.8925703 C214.203815,26.7068273 214.190261,26.626506 213.875,26.2128514 C213.528614,25.7610442 199.796185,10.1987952 199.167671,9.51355422 C198.387048,8.6626506 197.016566,7.34738956 194.934237,7.34738956 L190.158635,7.34738956 L190.158635,2.45983936 L217.10994,2.45983936 L217.10994,7.34136546 L213.860944,7.34136546 C213.109438,7.34136546 212.60994,8.05421687 213.252008,8.84638554 C213.252008,8.84638554 222.319779,19.6932731 222.405622,19.8067269 C222.48996,19.9221888 222.562249,19.9497992 222.677711,19.8443775 C222.791165,19.7364458 231.972892,8.94578313 232.045181,8.86044177 C232.481928,8.3373494 232.185743,7.34688755 231.244478,7.34688755 L227.911647,7.34688755 L227.911647,2.45983936 L250,2.45983936 L250,7.34688755 L245.065261,7.34688755 C243.2751,7.34688755 242.546687,7.67821285 241.199799,9.20080321 C240.583835,9.89759036 226.704819,25.7394578 226.327309,26.1686747 C226.129518,26.3930723 226.146586,26.7058233 226.146586,26.8915663 L226.146586,34.6114458 C226.146586,34.7680723 226.181727,35.502008 226.252008,35.6666667 C226.419177,36.063253 226.781124,36.4417671 227.311245,36.6054217 C227.496988,36.6626506 228.442771,36.6907631 228.658133,36.6907631 L233.705823,36.6907631 L233.705823,41.5773092 L206.893574,41.5773092 L206.893574,36.690261 L211.677711,36.6942771 L211.676707,36.6942771 Z" id="path4258"></path>
        </g>
    </g>
</svg>
